_includes/icons/ios-trash.svg

<svg fill="#666" height="50" viewBox="0 0 50 50" width="50" xmlns="http://www.w3.org/2000/svg"><path d="m21 0c-1.644531 0-3 1.355469-3 3v2h-7.8125c-.125-.023437-.25-.023437-.375 0h-1.8125c-.03125 0-.0625 0-.09375 0-.550781.027344-.980469.496094-.953125 1.046875s.496094.980469 1.046875.953125h1.09375l3.59375 40.5c.125 1.398438 1.316406 2.5 2.71875 2.5h19.1875c1.402344 0 2.59375-1.101562 2.71875-2.5l3.59375-40.5h1.09375c.359375.003906.695313-.183594.878906-.496094.179688-.3125.179688-.695312 0-1.007812-.183593-.3125-.519531-.5-.878906-.496094h-10v-2c0-1.644531-1.355469-3-3-3zm0 2h8c.5625 0 1 .4375 1 1v2h-10v-2c0-.5625.4375-1 1-1zm-9.90625 5h27.8125l-3.59375 40.34375c-.03125.347656-.402344.65625-.71875.65625h-19.1875c-.316406 0-.6875-.308594-.71875-.65625zm7.8125 2.96875c-.042969.007813-.085937.019531-.125.03125-.464844.105469-.792969.523438-.78125 1v33c-.003906.359375.183594.695313.496094.878906.3125.179688.695312.179688 1.007812 0 .3125-.183593.5-.519531.496094-.878906v-33c.011719-.289062-.105469-.566406-.3125-.761719-.210937-.199218-.496094-.296875-.78125-.269531zm6 0c-.042969.007813-.085937.019531-.125.03125-.464844.105469-.792969.523438-.78125 1v33c-.003906.359375.183594.695313.496094.878906.3125.179688.695312.179688 1.007812 0 .3125-.183593.5-.519531.496094-.878906v-33c.011719-.289062-.105469-.566406-.3125-.761719-.210937-.199218-.496094-.296875-.78125-.269531zm6 0c-.042969.007813-.085937.019531-.125.03125-.464844.105469-.792969.523438-.78125 1v33c-.003906.359375.183594.695313.496094.878906.3125.179688.695312.179688 1.007812 0 .3125-.183593.5-.519531.496094-.878906v-33c.011719-.289062-.105469-.566406-.3125-.761719-.210937-.199218-.496094-.296875-.78125-.269531z"/></svg>

<svg xmlns="http://www.w3.org/2000/svg" viewBox="0 0 50 50" width="50" height="50" fill="#666"><path d="M 21 0 C 19.355469 0 18 1.355469 18 3 L 18 5 L 10.1875 5 C 10.0625 4.976563 9.9375 4.976563 9.8125 5 L 8 5 C 7.96875 5 7.9375 5 7.90625 5 C 7.355469 5.027344 6.925781 5.496094 6.953125 6.046875 C 6.980469 6.597656 7.449219 7.027344 8 7 L 9.09375 7 L 12.6875 47.5 C 12.8125 48.898438 14.003906 50 15.40625 50 L 34.59375 50 C 35.996094 50 37.1875 48.898438 37.3125 47.5 L 40.90625 7 L 42 7 C 42.359375 7.003906 42.695313 6.816406 42.878906 6.503906 C 43.058594 6.191406 43.058594 5.808594 42.878906 5.496094 C 42.695313 5.183594 42.359375 4.996094 42 5 L 32 5 L 32 3 C 32 1.355469 30.644531 0 29 0 Z M 21 2 L 29 2 C 29.5625 2 30 2.4375 30 3 L 30 5 L 20 5 L 20 3 C 20 2.4375 20.4375 2 21 2 Z M 11.09375 7 L 38.90625 7 L 35.3125 47.34375 C 35.28125 47.691406 34.910156 48 34.59375 48 L 15.40625 48 C 15.089844 48 14.71875 47.691406 14.6875 47.34375 Z M 18.90625 9.96875 C 18.863281 9.976563 18.820313 9.988281 18.78125 10 C 18.316406 10.105469 17.988281 10.523438 18 11 L 18 44 C 17.996094 44.359375 18.183594 44.695313 18.496094 44.878906 C 18.808594 45.058594 19.191406 45.058594 19.503906 44.878906 C 19.816406 44.695313 20.003906 44.359375 20 44 L 20 11 C 20.011719 10.710938 19.894531 10.433594 19.6875 10.238281 C 19.476563 10.039063 19.191406 9.941406 18.90625 9.96875 Z M 24.90625 9.96875 C 24.863281 9.976563 24.820313 9.988281 24.78125 10 C 24.316406 10.105469 23.988281 10.523438 24 11 L 24 44 C 23.996094 44.359375 24.183594 44.695313 24.496094 44.878906 C 24.808594 45.058594 25.191406 45.058594 25.503906 44.878906 C 25.816406 44.695313 26.003906 44.359375 26 44 L 26 11 C 26.011719 10.710938 25.894531 10.433594 25.6875 10.238281 C 25.476563 10.039063 25.191406 9.941406 24.90625 9.96875 Z M 30.90625 9.96875 C 30.863281 9.976563 30.820313 9.988281 30.78125 10 C 30.316406 10.105469 29.988281 10.523438 30 11 L 30 44 C 29.996094 44.359375 30.183594 44.695313 30.496094 44.878906 C 30.808594 45.058594 31.191406 45.058594 31.503906 44.878906 C 31.816406 44.695313 32.003906 44.359375 32 44 L 32 11 C 32.011719 10.710938 31.894531 10.433594 31.6875 10.238281 C 31.476563 10.039063 31.191406 9.941406 30.90625 9.96875 Z"/></svg>
